src/assets/github-background-light.svg

<svg xmlns="http://www.w3.org/2000/svg" xmlns:xlink="http://www.w3.org/1999/xlink" width="688" height="688" viewBox="0 0 688 688">
  <defs>
    <clipPath id="clip-path">
      <rect id="Retângulo_2" data-name="Retângulo 2" width="688" height="688" transform="translate(0 -40)"/>
    </clipPath>
  </defs>
  <g id="github-background-light" transform="translate(0 40)" opacity="0.02">
    <g id="Grupo_2" data-name="Grupo 2" clip-path="url(#clip-path)">
      <path id="Caminho_2" data-name="Caminho 2" d="M344-25.667c-190.06,0-344,151.36-344,338.038C0,461.753,98.556,588.43,235.21,633.093c17.2,3.182,23.507-7.281,23.507-16.254,0-8.027-.287-29.3-.43-57.476-95.69,20.382-115.871-45.351-115.871-45.351-15.652-39.015-38.27-49.45-38.27-49.45-31.161-20.955,2.408-20.525,2.408-20.525,34.543,2.35,52.689,34.83,52.689,34.83,30.674,51.686,80.525,36.75,100.19,28.122,3.1-21.873,11.954-36.751,21.787-45.208-76.4-8.456-156.692-37.524-156.692-167.04,0-36.894,13.33-67.052,35.4-90.7-3.87-8.542-15.48-42.914,3.01-89.468,0,0,28.81-9.059,94.6,34.658a329.807,329.807,0,0,1,172,0c65.36-43.717,94.17-34.658,94.17-34.658,18.49,46.554,6.88,80.926,3.44,89.468,21.93,23.65,35.26,53.808,35.26,90.7,0,129.86-80.41,158.44-156.95,166.754,12.04,10.148,23.22,30.874,23.22,62.55,0,45.236-.43,81.586-.43,92.565,0,8.858,6.02,19.436,23.65,16.053C589.53,588.287,688,461.523,688,312.371,688,125.693,533.974-25.667,344-25.667Z"/>
    </g>
  </g>
</svg>

<svg width="688" height="648" viewBox="0 0 688 648" fill="none" xmlns="http://www.w3.org/2000/svg">
<g opacity="0.05">
<g clip-path="url(#clip0)">
<path d="M344 -25.6667C153.94 -25.6667 0 125.693 0 312.371C0 461.753 98.556 588.43 235.21 633.093C252.41 636.275 258.717 625.812 258.717 616.839C258.717 608.812 258.43 587.542 258.287 559.363C162.597 579.745 142.416 514.012 142.416 514.012C126.764 474.997 104.146 464.562 104.146 464.562C72.9853 443.607 106.554 444.037 106.554 444.037C141.097 446.387 159.243 478.867 159.243 478.867C189.917 530.553 239.768 515.617 259.433 506.989C262.529 485.116 271.387 470.238 281.22 461.781C204.823 453.325 124.528 424.257 124.528 294.741C124.528 257.847 137.858 227.689 159.931 204.039C156.061 195.497 144.451 161.125 162.941 114.571C162.941 114.571 191.751 105.512 257.541 149.229C285.061 141.718 314.301 137.991 343.541 137.819C372.781 137.991 402.021 141.718 429.541 149.229C494.901 105.512 523.711 114.571 523.711 114.571C542.201 161.125 530.591 195.497 527.151 204.039C549.081 227.689 562.411 257.847 562.411 294.741C562.411 424.601 482.001 453.181 405.461 461.495C417.501 471.643 428.681 492.369 428.681 524.045C428.681 569.281 428.251 605.631 428.251 616.61C428.251 625.468 434.271 636.046 451.901 632.663C589.53 588.287 688 461.523 688 312.371C688 125.693 533.974 -25.6667 344 -25.6667Z" fill="url(#paint0_linear)"/>
</g>
</g>
<defs>
<linearGradient id="paint0_linear" x1="344" y1="-25.6667" x2="344" y2="633.676" gradientUnits="userSpaceOnUse">
<stop stop-color="#121214"/>
<stop offset="1" stop-color="#121214" stop-opacity="0"/>
</linearGradient>
<clipPath id="clip0">
<rect y="-40" width="688" height="688" fill="white"/>
</clipPath>
</defs>
</svg>
